source/images/icons/icon-powder.svg

<svg width="27" height="29" viewBox="0 0 27 29" fill="none" xmlns="http://www.w3.org/2000/svg">
<path d="M11.375 0C9.74375 0 8.475 1.35937 8.475 3.08125C8.475 4.80312 9.74375 6.1625 11.375 6.1625C13.0063 6.1625 14.275 4.80312 14.275 3.08125C14.275 1.35937 13.0063 0 11.375 0ZM11.375 1.17812C12.3719 1.17812 13.0969 2.02094 13.0969 3.08125C13.0969 4.07812 12.3084 4.98438 11.375 4.98438C10.3781 4.98438 9.65313 4.14156 9.65313 3.08125C9.65313 2.08437 10.4325 1.17812 11.375 1.17812ZM0.5 24.7406C0.5 25.9188 0.907813 26.9156 1.85938 27.7313C2.85625 28.5831 4.03438 28.5106 4.03438 28.5106H23.0656C23.845 28.5106 24.8781 28.13 25.6937 27.0606C26.5366 26.0638 26.4822 24.7044 26.4822 24.7044V7.48563C26.4822 7.05063 26.3734 6.8875 25.7391 6.8875C25.1047 6.8875 25.0503 7.15938 25.0503 7.47656V24.6953C25.0322 24.9944 24.9778 25.7828 24.3072 26.4172C23.5731 27.0425 22.8572 26.9609 22.8572 26.9609C22.8572 26.9609 4.73219 26.9609 3.82594 26.9338C3.48156 26.8703 2.91969 26.7434 2.37594 26.0275C1.86844 25.3025 1.96812 24.3962 1.96812 24.3962V7.1775C1.96812 6.71531 1.7325 6.54313 1.24313 6.54313C0.75375 6.54313 0.5 6.71531 0.5 7.12313V24.7406ZM16.8125 8.42813C15.725 8.66375 14.6375 8.80875 12.5531 10.7844C10.4688 12.7781 8.92813 12.6875 7.3875 12.5969C5.84688 12.5063 4.21563 11.0563 3.94375 10.6938C3.60844 10.3403 3.0375 10.5759 2.85625 10.8116C2.70219 11.0472 2.70219 11.455 2.965 11.8084C4.23375 12.9866 5.41188 13.8928 7.6775 14.0741C9.94312 14.2916 12.1181 13.2675 13.5681 11.8084C15.0181 10.3584 15.7431 10.0866 16.8306 9.90531C19.4587 9.48844 20.9994 10.5216 21.9056 11.1741C22.9025 12.2616 23.1744 11.9534 23.4462 11.6453C23.99 10.9294 23.2197 10.3766 22.3588 9.74219C20.5463 8.56406 18.8244 8.11094 16.8306 8.47344L16.8125 8.42813ZM7.75 15.5875C6.57188 15.5875 5.66562 16.5844 5.66562 17.8531C5.66562 19.1219 6.57188 20.1188 7.75 20.1188C8.92813 20.1188 9.83438 19.1219 9.83438 17.8531C9.83438 16.5844 8.92813 15.5875 7.75 15.5875ZM19.5312 16.3669C17.9906 16.3669 16.7219 17.7262 16.7219 19.3575C16.7219 20.9888 17.9906 22.3481 19.5312 22.3481C21.0719 22.3481 22.3406 20.9888 22.3406 19.3575C22.3406 17.7262 21.0719 16.3669 19.5312 16.3669ZM19.5312 17.8169C20.3288 17.8169 20.9813 18.5147 20.9813 19.3575C20.9813 20.2184 20.3288 20.8981 19.5312 20.8981C18.7337 20.8981 18.0812 20.2003 18.0812 19.3575C18.0812 18.4966 18.7337 17.8169 19.5312 17.8169Z" fill="white"/>
</svg>

<svg viewBox="0 0 27 29" fill="none" xmlns="http://www.w3.org/2000/svg"><path d="M11.38 0c-1.64 0-2.9 1.36-2.9 3.08s1.26 3.08 2.9 3.08c1.63 0 2.9-1.36 2.9-3.08s-1.27-3.08-2.9-3.08Zm0 1.18c1 0 1.72.84 1.72 1.9 0 1-.8 1.9-1.72 1.9-1 0-1.73-.84-1.73-1.9 0-1 .78-1.9 1.72-1.9Zm-10.88 23.56c0 1.18.4 2.18 1.36 3 1 .84 2.17.77 2.17.77h19.04c.77 0 1.8-.38 2.62-1.45.85-1 .8-2.36.8-2.36v-17.21c0-.44-.12-.6-.75-.6-.64 0-.69.27-.69.59v17.22c-.02.3-.07 1.08-.74 1.72-.74.62-1.45.54-1.45.54s-18.13 0-19.03-.03a2.14 2.14 0 0 1-1.45-.9c-.51-.73-.41-1.63-.41-1.63v-17.22c0-.46-.24-.64-.73-.64s-.74.18-.74.58v17.62Zm16.31-16.31c-1.08.23-2.17.38-4.26 2.35-2.08 2-3.62 1.9-5.16 1.82-1.54-.1-3.17-1.54-3.45-1.9-.33-.36-.9-.12-1.08.11-.16.24-.16.64.1 1 1.27 1.18 2.45 2.08 4.72 2.26a7.5 7.5 0 0 0 5.89-2.26c1.45-1.45 2.17-1.72 3.26-1.9a6.3 6.3 0 0 1 5.08 1.26c1 1.1 1.26.78 1.54.48.54-.72-.23-1.27-1.1-1.9a7.24 7.24 0 0 0-5.52-1.28l-.02-.04Zm-9.06 7.16c-1.18 0-2.08 1-2.08 2.26 0 1.27.9 2.27 2.08 2.27 1.18 0 2.08-1 2.08-2.27s-.9-2.26-2.08-2.26Zm11.78.78c-1.54 0-2.8 1.36-2.8 2.99 0 1.63 1.26 2.99 2.8 2.99 1.54 0 2.81-1.36 2.81-3 0-1.62-1.27-2.98-2.8-2.98Zm0 1.45c.8 0 1.45.7 1.45 1.54a1.5 1.5 0 0 1-1.45 1.54c-.8 0-1.45-.7-1.45-1.54 0-.86.65-1.54 1.45-1.54Z" fill="#fff"/></svg>
